X:1
T:I Dreamed I Searched Heaven For You
T:I Dreamed I Searched Heaven For You
T:James D. Vaughn - Mary Ethel Weiss
T:Larry Johnson
C:James D. Vaughn - Mary Ethel Weiss
Z:All Rights Reserved
L:1/4
Q:1/4=85
M:3/4
K:C
V:1 treble nm="Voice"
%%MIDI program 54
V:1
"C" C E2 | E E D | C D E | C2 E | G/G/ G G | E A G- | G3 | G/G/"F" A2 | A/A/ c/c/ A/"C"G/ | E2 E | %10
w: I dreamed|I had gone|to that ci|ty that|ci ty where ne|ver comes night|_|and I saw|the bright an gels in glo|ry I|
 E E E | E D C |"G7" D3 | C"C" E2 | E/E/ D C | D E C- | C3 | G/G/ G2 | G/G/ G E | A G2 | %20
w: saw the fair|man sions of|light|I gazed|for long long years|of rap ture|_|on the face|of my Sav ior|so true|
 G/G/"F" A2 | A/B/ c c | A"C" G E- | E2 C/D/ | E E E |"G7" D C D |"C" C3 || G"F" c c | c A G | %29
w: and I sang|with the ser a|phim ho ly|_ then I|dreamed I searched|heav en for|you|I dreamed I|seached hea ven|
 F"C" G2 | A A G | E E D | C"G7" D2- | D G G |"F" c c c | A"C" G E | A G2 | C E2 | E/E/"G7" D C | %39
w: for you|searched vain ly|through hea ven|for you|_ Oh won't|you pre pare|to meet me|up there|lest we|should seach heav en|
 D"C" C2- | C3 ||[Q:1/4=85]"C" C E2 | E E D | C D E | C2 E | G G G | E A G- | G3 | G/G/"F" A2 | %49
w: for you|_|I looked|on both sides|of the ri|ver that|flows through the|city of God|_|and I seached|
 A/A/ c/c/ A/"C"G/ | E2 E | E E E | E D C |"G7" D3 | C"C" E2 | E/E/ D C | D E C- | C3 | G/G/ G2 | %59
w: through bright man sions cel est|ial and|streets of gold|pave ment I|trod|the faces|of _ saints by|the mil lion|_|I _ scanned|
 G/G/ G E | A G2 | G/G/"F" A2 | A/B/ c c | A"C" G E- | E2 C/D/ | E E E |"G7" D C D |"C" C3 || %68
w: in my yearn ing|to see|that _ face|I had cher ished|so fond ly|_ The _|face that had|grown dear to|me|
 G"F" c c | c A G | F"C" G2 | A A G | E E D | C"G7" D2- | D G G |"F" c c c | A"C" G E | A G2 | %78
w: I dreamed I|seached hea ven|for you|searched vain ly|through hea ven|for you|_ Oh won't|you pre pare|to meet me|up there|
 C E2 | E/E/"G7" D C | D"C" C2- | C3 ||[Q:1/4=85]"C" C E2 | E E D | C D E | C2 E | G/G/ G G | %87
w: lest we|should seach heav en|for you|_|I asked|the ten thou|sand sweett an|gels have|you seen my loved|
 E A G- | G3 | G/G/"F" A2 | A/A/ c/c/ A/"C"G/ | E2 E | E E E | E D C |"G7" D3 | C"C" E2 | %96
w: on pray tell|_|have you met|on the bright streets of glo|ry the|one on earth|I loved so|well|they shook|
 E/E/ D C | D E C- | C3 | G/G/ G2 | G/G/ G E | A G2 | G/G/"F" A2 | A/B/ c c | A"C" G E- | E2 C/D/ | %106
w: their heads sad ly|and told me|_|that _ the|had not seen you|and then|_ I know|that some where in|the dark ness|_ you _|
 E2 E |"G7" D C D |"C" C3 || G"F" c c | c A G | F"C" G2 | A A G | E E D | C"G7" D2- | D G G | %116
w: wan dered|lost in your|sin|I dreamed I|seached hea ven|for you|searched vain ly|through hea ven|for you|_ Oh won't|
"F" c c c | A"C" G E | A G2 | C E2 | E/E/"G7" D C | D"C" C2- | C3 |] %123
w: you pre pare|to meet me|up there|lest we|should seach heav en|for you|_|

